src/22/panel/dino-status-dnd.svg

<svg xmlns="http://www.w3.org/2000/svg" width="22" height="22" version="1.1">
 <defs>
  <style id="current-color-scheme" type="text/css">
   .ColorScheme-Text { color:#bebebe; } .ColorScheme-Highlight { color:#5294e2; }
  </style>
 </defs>
 <path style="fill:currentColor" class="ColorScheme-Text" d="M 11 3 A 8 8 0 0 0 3 11 A 8 8 0 0 0 11 19 A 8 8 0 0 0 19 11 A 8 8 0 0 0 11 3 z M 7 10 L 15 10 C 15.554 10 16 10.446 16 11 C 16 11.554 15.554 12 15 12 L 7 12 C 6.446 12 6 11.554 6 11 C 6 10.446 6.446 10 7 10 z"/>
</svg>

<svg xmlns="http://www.w3.org/2000/svg" width="22" height="22"><defs><style id="current-color-scheme" type="text/css"></style></defs><path d="M11 3a8 8 0 0 0-8 8 8 8 0 0 0 8 8 8 8 0 0 0 8-8 8 8 0 0 0-8-8zm-4 7h8c.554 0 1 .446 1 1s-.446 1-1 1H7c-.554 0-1-.446-1-1s.446-1 1-1z" fill="currentColor" color="#bebebe"/></svg>
